images/services/coverages-icon.svg

<svg width="47" height="47" viewBox="0 0 47 47" fill="none" xmlns="http://www.w3.org/2000/svg">
<path d="M47.0001 44.2461H44.2462V16.5234H35.8927V44.2461H33.1388V27.5391H24.8771V44.2461H22.1232V22.0313H13.8615V44.2461H11.1075V30.293H2.75403V44.2461H0.00012207V47H47.0001V44.2461Z" fill="#407BFF"/>
<path d="M47 11.0156V0H35.8926V2.75391H42.299L29.0078 15.9533L17.9922 4.93766L0.403442 22.4347L2.35045 24.3817L17.9922 8.83187L29.0078 19.8475L44.2461 4.70101V11.0156H47Z" fill="#407BFF"/>
</svg>

<?xml version="1.0" encoding="UTF-8"?>
<svg width="47" height="47" version="1.1" viewBox="0 0 47 47" xmlns="http://www.w3.org/2000/svg">
 <path d="m47 44.246h-2.7539v-27.723h-8.3535v27.723h-2.7539v-16.707h-8.2617v16.707h-2.7539v-22.215h-8.2617v22.215h-2.754v-13.953h-8.3535v13.953h-2.7539v2.7539h47v-2.7539z" fill="#FF725E"/>
 <path d="m47 11.016v-11.016h-11.107v2.7539h6.4064l-13.291 13.199-11.016-11.016-17.589 17.497 1.947 1.947 15.642-15.55 11.016 11.016 15.238-15.146v6.3146h2.7539z" fill="#FF725E"/>
</svg>
